images/proposal-item2.svg

<svg width="127" height="126" viewBox="0 0 127 126" fill="none" xmlns="http://www.w3.org/2000/svg">
<g id="mdi:pasta">
<path id="Vector" d="M21.1064 86.625V42H15.8564V36.75H21.1064V31.5H15.8564V26.25H21.1064V21H15.8564V15.75H47.3564C49.9814 15.9075 52.3439 17.01 54.3914 19.0575C56.4389 21.105 57.5939 23.625 57.8564 26.25H110.356V31.5H57.8564C57.5939 34.2825 56.4389 36.75 54.3914 39.0075C52.3439 41.265 49.9814 42.2625 47.3564 42H36.8564V79.0125C37.1189 79.0125 37.5389 78.96 38.1164 78.75C38.6939 78.54 39.1664 78.75 39.4814 78.75C42.4214 78.75 45.7814 79.485 49.5614 80.955C51.7139 76.125 55.3889 71.82 60.6389 68.25C65.8889 64.68 71.1389 63 76.3889 63C84.4214 63 91.2464 65.7825 96.8114 71.3475C102.376 76.9125 105.106 83.7375 105.106 91.875V93.2925C105.106 93.975 104.949 94.3425 104.949 94.5H16.5914C17.2739 91.875 18.7439 89.25 21.1064 86.625ZM31.6064 79.9575V42H26.3564V82.425C28.9814 81.1125 30.6089 80.325 31.6064 79.9575ZM47.3564 36.75V31.5H36.8564V36.75H47.3564ZM47.3564 21H36.8564V26.25H47.3564V21ZM26.3564 21V26.25H31.6064V21H26.3564ZM26.3564 31.5V36.75H31.6064V31.5H26.3564ZM10.6064 99.75H115.606L105.106 110.25H21.1064L10.6064 99.75Z" fill="white"/>
</g>
</svg>

<svg width="127" height="126" fill="none" xmlns="http://www.w3.org/2000/svg"><path d="M21.106 86.625V42h-5.25v-5.25h5.25V31.5h-5.25v-5.25h5.25V21h-5.25v-5.25h31.5c2.625.158 4.988 1.26 7.035 3.308 2.048 2.047 3.203 4.567 3.465 7.192h52.5v5.25h-52.5c-.262 2.782-1.417 5.25-3.465 7.508-2.047 2.257-4.41 3.255-7.035 2.992h-10.5v37.013c.263 0 .683-.053 1.26-.263.578-.21 1.05 0 1.365 0 2.94 0 6.3.735 10.08 2.205 2.153-4.83 5.828-9.135 11.078-12.705 5.25-3.57 10.5-5.25 15.75-5.25 8.032 0 14.857 2.782 20.422 8.347 5.565 5.566 8.295 12.39 8.295 20.528v1.418c0 .682-.157 1.05-.157 1.207H16.591c.683-2.625 2.153-5.25 4.515-7.875Zm10.5-6.668V42h-5.25v40.425c2.625-1.313 4.253-2.1 5.25-2.468Zm15.75-43.207V31.5h-10.5v5.25h10.5Zm0-15.75h-10.5v5.25h10.5V21Zm-21 0v5.25h5.25V21h-5.25Zm0 10.5v5.25h5.25V31.5h-5.25Zm-15.75 68.25h105l-10.5 10.5h-84l-10.5-10.5Z" fill="#fff"/></svg>
